X:369
%%etbk:tnset id:208,pos:2,rep:3x,ant:
%%etbk:pldat 2014-09-04T18:53,2014-09-03T19:06,2014-09-02T18:54,2014-09-01T18:56,2014-08-31T14:17,2014-08-28T18:50,2014-08-27T19:03,2014-08-26T17:13,2014-08-25T19:10,2014-08-24T14:52,2013-08-29T17:01
T:Ship in Full Sail, The
T:Kitty's Wedding
T:Fisherman's
T:Paddy the Dandy
R:Jig
D:De Dannan : "Star Spangled Molly"
M:6/8
K:Amaj
!1!E!3!A!1!A !3!c!1!AA|!5!e!1!AA !3!c!1!A!1!A|!4!f!5!af !3!e!2!c!1!A|!2!BcB !2!B!1!A!2!F| !1!E!3!A!1!A !3!c!1!AA|!5!e!1!AA !3!c!5!e!3!e|!4!faf !3!e!2!c!1!A|1 !2!BcB !1!A2!2!F:|2 !2!BcB !1!A3||
|:!2!e!5!a!3!a !5!c'!3!aa|!4!bab !5!c'!3!a!2!f|eaa c'aa|bc'b baf|eaa c'aa|bab c'a!1!e|!2!f!4!af !1!e!3!c!1!A|1 !2!BcB !1!A3:|2 !2!BcB !1!Acd||
|:!3!e!4!f!3!e !3!e!2!c!1!A| !3!f!2!f!3!f !3!fga | !3!efe !3!e!2!cA|!3!d!1!BB Bcd|!4!eA!3!e ecA| !3!f2f fga| !3!e!2!cA !2!BAB|1 !3!c!1!AA Acd:|2 cAA A2F||


